X:1
T:Title
%%score { ( 1 3 ) | ( 2 4 ) }
L:1/8
Q:1/4=144
M:6/4
K:C
V:1 treble nm="Grand Piano"
V:3 treble 
V:2 bass 
V:4 bass 
V:1
 [EG]2 [_E^F]2 [=EG]2 [_EA]2 [=EG]2 E2 | G4 B,2 B,6 | F2 E2 F2 c2 B2 A2 | [EA]4 E2 E6 | %4
w: C.~Harold~Lowden * * * * *||||
 E2 [DF]2 [_E^F]2 [=EG]2 [Ec]2 [Ge]2 | [^Ge]4 [GB]2 c4 cc | [GB]2 [G_B]2 [G=B]2 [^Fd]4 [EA][FB] | %7
w: |||
 G12 | [Ec]2 [EB]2 [Ec]2 [Gd]2 [Gc]2 [^FA]2 | [Fc]4 B2 B6 | d2 ^c2 d2 e2 d2 B2 | %11
w: ||||
 [FA]4 [EG]2 [EG]6 | [EG]2 A2 B2 c2 B2 c2 | [^Fe]4 [Fc]2 [Fc]4 [Fc][Fc] | G2 A2 c2 d4 ee | %15
w: ||||
 [Ec]12 |] %16
w: |
V:2
 [C,C]2 [C,A,]2 [C,G,]2 [C,^F,]2 [C,G,]2 [^C,G,_B,]2 | [D,F,B,]4 [G,,F,]2 [G,,F,]6 | %2
 [G,B,D]2 [G,_B,^C]2 [G,=B,D]2 [G,A,F]2 [G,F]2 [G,B,F]2 | [C,C]4 [C,G,C]2 [C,G,C]6 | %4
 [C,C]2 [C,B,]2 [C,A,]2 [C,G,]2 [C,G,]2 [C,C]2 | [E,B,]4 [E,E]2[K:treble] [A,EA]4 [A,EA][A,EA] | %6
 [D,D]2 [D,^C]2 [D,D]2 [D,A,]4 [D,=C][D,D] | B,2 B,2 C2 .D6 | %8
 [C,C]2 [C,C]2 [C,C]2 [E,C]2 [E,C]2 [_E,C]2 | [D,A,]4[K:treble] [G,F]2 [G,F]6 | %10
 [G,B,F]2 [G,_B,E]2 [G,=B,F]2 [G,A,G]2 [G,B,F]2 [G,DF]2 | [C,C]4 [C,C]2 [C,C]6 | %12
 [C,C]2 [CE]2 [B,DE]2 [A,CE]2 [^G,DE]2 [A,CE]2 | [D,C]4 [D,C]2 [D,C]4 [D,C][D,C] | %14
 [G,E]2 [G,CE]2 [G,CE]2 [G,A,F]4 [G,B,F][G,B,F] | [C,C]12 |] %16
V:3
 x12 | x12 | x12 | x12 | x12 | x12 | x12 | z2 D2 E2 .F6 | x12 | x12 | x12 | x12 | x12 | x12 | x12 | %15
 x12 |] %16
V:4
 x12 | x12 | x12 | x12 | x12 | x6[K:treble] x6 | x12 | G,12 | x12 | x4[K:treble] x8 | x12 | x12 | %12
 x12 | x12 | x12 | x12 |] %16

